automancy/models/items/elements/files/water.svg

<?xml version="1.0" encoding="UTF-8" standalone="no"?>
<svg
   width="160cm"
   height="160cm"
   viewBox="0 0 160 160"
   version="1.1"
   id="svg2"
   sodipodi:docname="water.svg"
   inkscape:version="1.3.2 (091e20ef0f, 2023-11-25, custom)"
   inkscape:export-filename="water.png"
   inkscape:export-xdpi="4.0599999"
   inkscape:export-ydpi="4.0599999"
   xmlns:inkscape="http://www.inkscape.org/namespaces/inkscape"
   xmlns:sodipodi="http://sodipodi.sourceforge.net/DTD/sodipodi-0.dtd"
   xmlns="http://www.w3.org/2000/svg"
   xmlns:svg="http://www.w3.org/2000/svg">
  <defs
     id="defs2" />
  <sodipodi:namedview
     id="namedview2"
     pagecolor="#505050"
     bordercolor="#eeeeee"
     borderopacity="1"
     inkscape:showpageshadow="0"
     inkscape:pageopacity="0"
     inkscape:pagecheckerboard="0"
     inkscape:deskcolor="#d1d1d1"
     inkscape:document-units="cm"
     inkscape:zoom="0.079999996"
     inkscape:cx="3475.0002"
     inkscape:cy="3831.2502"
     inkscape:window-width="1872"
     inkscape:window-height="1052"
     inkscape:window-x="1920"
     inkscape:window-y="0"
     inkscape:window-maximized="1"
     inkscape:current-layer="svg2" />
  <path
     id="path3"
     style="fill:#6b9adf;stroke-width:2;stroke-linecap:round;stroke-linejoin:round;fill-opacity:1;stroke:none"
     d="M 159.99998,79.999992 A 79.999992,79.999992 0 0 1 79.999992,159.99998 79.999992,79.999992 0 0 1 0,79.999992 79.999992,79.999992 0 0 1 79.999992,0 79.999992,79.999992 0 0 1 159.99998,79.999992 Z" />
  <path
     id="path3-5"
     style="fill:#7086b7;fill-opacity:1;stroke:none;stroke-width:1.75046;stroke-linecap:round;stroke-linejoin:round;stroke-dasharray:none"
     d="M 149.99999,79.999995 A 70.000001,70.000002 0 0 1 79.999993,149.99999 70.000001,70.000002 0 0 1 9.9999915,79.999995 70.000001,70.000002 0 0 1 79.999993,9.999991 70.000001,70.000002 0 0 1 149.99999,79.999995 Z" />
  <path
     id="path10"
     style="fill:#97bcff;stroke-width:9.12344"
     d="M 86.309719 30.012483 C 83.660136 30.104623 80.907177 30.710183 78.090117 31.950608 C 39.887881 48.77204 80.032152 66.74376 86.108129 77.49651 C 95.0855 69.51331 75.89571 52.711503 84.981583 47.441032 C 94.121521 42.139201 113.2889 61.912397 113.2889 61.912397 C 118.33882 53.881187 104.8568 29.367506 86.309719 30.012483 z M 88.378688 53.853509 C 88.378688 53.853509 101.07608 74.280834 98.338752 83.647556 C 94.814071 95.708424 67.808316 108.33303 67.808316 108.33303 C 121.04193 101.07786 131.12748 77.642427 88.378688 53.853509 z M 88.340551 81.766275 C 68.632847 84.410179 41.900142 90.827466 45.293669 106.08376 C 48.37351 121.59698 66.595625 129.99997 66.595625 129.99997 C 66.595625 129.99997 58.727722 110.62114 62.409266 101.77162 C 66.478832 91.989384 88.340551 81.766275 88.340551 81.766275 z " />
</svg>

<svg xmlns="http://www.w3.org/2000/svg" width="160cm" height="160cm" viewBox="0 0 160 160"><path d="M160 80a80 80 0 0 1-80 80A80 80 0 0 1 0 80 80 80 0 0 1 80 0a80 80 0 0 1 80 80" style="fill:#6b9adf;stroke-width:2;stroke-linecap:round;stroke-linejoin:round;fill-opacity:1;stroke:none"/><path d="M150 80a70 70 0 0 1-70 70 70 70 0 0 1-70-70 70 70 0 0 1 70-70 70 70 0 0 1 70 70" style="fill:#7086b7;fill-opacity:1;stroke:none;stroke-width:1.75046;stroke-linecap:round;stroke-linejoin:round;stroke-dasharray:none"/><path d="M86.31 30.012c-2.65.093-5.403.698-8.22 1.939-38.202 16.821 1.942 34.793 8.018 45.546 8.977-7.984-10.212-24.785-1.126-30.056 9.14-5.302 28.307 14.471 28.307 14.471 5.05-8.03-8.432-32.544-26.98-31.9m2.069 23.842s12.697 20.427 9.96 29.794c-3.525 12.06-30.53 24.685-30.53 24.685 53.233-7.255 63.318-30.69 20.57-54.48m-.038 27.912c-19.708 2.644-46.44 9.061-43.047 24.318C48.374 121.597 66.596 130 66.596 130s-7.868-19.379-4.187-28.228c4.07-9.783 25.932-20.006 25.932-20.006" style="fill:#97bcff;stroke-width:9.12344"/></svg>
